src/svgs/brush-bg-3.svg

<?xml version="1.0" encoding="UTF-8"?>
<!DOCTYPE svg  PUBLIC '-//W3C//DTD SVG 1.1//EN'  'http://www.w3.org/Graphics/SVG/1.1/DTD/svg11.dtd'>
<svg clip-rule="evenodd" fill-rule="evenodd" stroke-linejoin="round" stroke-miterlimit="2" version="1.1" viewBox="0 0 28 28" xml:space="preserve" xmlns="http://www.w3.org/2000/svg">
    <g transform="matrix(.27717 0 0 .27717 -4.8702e-6 0)">
        <rect width="100" height="100" fill="none"/>
        <g transform="matrix(.070546 0 0 .070546 1.088 6.8031)">
            
                <path d="m351.24 1238.9c-16.186-1.3-41.116-15.15-20.083-24.19-23.952 2.37-58.447-4.6-47.392-21.6-38.738 20.75 41.861-47.83-13.207-22.67-45.179 25.59 7.187-68.97-46.352-38.31-19.708-12.48-34.221 10.26-18.395-12.39-35.083 5.18-79.586 9.88-115.6-10.74-17.901-11.4 23.37-11.19-14.271-25.34 6.493-12.01 21.682-6.97 10.934-20.78 43.537-14.38-40.789-17.37-31.601-25.71 37.06-9.19 8.382-9.69 7.781-25.57 58.225 2.91-35.349-32.345 16.76-35.743-6.233-22.141-48.34-10.732-38.653-46.008-39.488-6.192-13.507-34.573-26.601-30.837-50.636 22.039 48.129-40.652 34.932-27.356-36.68-6.494-12.146-36.063 11.39-30.927-21.741-3.364-70.742-14.143-23.207-27.875 29.746-9.713 7.917-34.427 0.607-12.639-27.004-37.61 45.054-5.044 26.932-56.828-8.038-148.79-20.996-297.38-27.204-446.21 2.579-67.5-8.795-136.52 1.061-202.99 15.962-37.836 19.574-0.647 40.413-29.364 1.102 25.895 15.282 2.941 21.651 24.878 22.482-16.775 6.508-68.287 29.766-22.087 19.045-42.993 16.506 52.438 34.535-11.69 21.635 1.277 20.511 32.033 31.17-0.937 11.829-7.751 12.103-24.291 38.165-20.585 4.227-37.963 38.518 0.937 18.737-34.384 33.668 8.57 22.301 72.491 41.615 31.799 29.922-24.674 14.122 58.645 28.889 0.498 4.815-50.405 42.795 49.005 40.498 9.794-14.35-4.033 30.992-24.969 17.731 12.478-0.23 35.421-6.466 118.77 3.253 126.4 13.642-49.393 37.126-81.335 71.805-83.511-3.53 24.596 16.566-23.303 3.079 22.985 5.588 20.915 20.275-47.132 25.997-1.747 0.932 36.259 31.492-42.41 22.125 13.108 9.8-43.438 25.28-7.842 14.695-13.003 7.197 19.744 42.746-65.604 46.515-22.806-16.128 39.493-12.346 35.079 6.853 9.602 18.895 23.504-21.262 45.93-0.147 54.497 20.584-42.363 0.612 52.613 16.991-3.627 11.052-26.993 20.602 60.895 7.643 83.715-4.888 32.169-37.987 127.65 0.703 58.191 18.573-31.7 45.536-87.719 54.853-34.737 6.028 19.582 20.709 31.143 33.351 7.302 10.444-27.924-1.031 29.839 16.339-7.995-4.978 11.736-3.787 50.216 12.368 22.808-12.027 35.717-46.864 107.47 5.992 46.395 101.38-94.952 202.62-192.37 320.56-266.32-50.073 48.749 133.1-80.579 76.26-42.301 23.45-14.42 29.72-20.313 36.27-1.374 36.68-29.187 15.34 24.538 37.98 37.865 18.78 36.255 19.12 86.809 53.18 110.69-1.84 33.822 32.15 39.905 55.29 33.812 40.69-55.49-8.84 63.954 45.09 17.381 19.8-18.792-30.58 55.939 13.66 16.871-22.82 20.122-19.36 99.139 24.02 60.074-3.26 30.13-44.14 84.349-64.77 120.24-24.84 34.63-120.61 87.556-109.35 107.51 37.51-17.671 50.69 17.885 58.43 9.72 45.38 6.335 9.72 10.166 19.29 14.946 25.95-6.564-53.62 27.328 10.96 12.433 2.94 9.847-33.27 34.845 13.39 30.741-51.47 28.687 46.78-18.548-6.31 15.975 2.37 13.461 59.47 4.359 56.48 22.006-23.72 6.835-60.93 21.821-13.8 13.208 13.12 23.543-58.54 16.432-38.96 32.839 34.85-0.677-44.35 29.725 18.18 9.946 15.53-2.256-55.83 47.186 4.98 29.545 50.14-12.049 55.92 7.136 48.61 37.227-7.26 29.211-44.65 58.398-18.87 93.74 2.5 10.343-23.52 31.394 14.73 24.728 53.9 2.793-67.93 15.117-11.92 37.195 61.39-5.42-45.19 35.72 1.6 67.03 85.67 10.532-26.68 11.584-41.34 40.755-67.35 24.12-136.14 47.78-209.09 45.85-36.98 3.16-120.49 1.08-128.9 11.96 41.397 22.82 149.52 6.52 118.18 79.07-15.34 39.2-10.51 94.67-71.31 59.36-149.7-33.3-297.61-75.43-445.37-115.27-63.65 8.51-99.785 80.72-158.95 106.84-25.937 9.61-55.136 36.52-81.618 32.43zm-151.05-129.9c-20.85-14.17-79.918 7.36-11.632 3.55 3.789 0.26 9.73 1.02 11.632-3.55zm915.86-107.07c32.29 0.76 105.96-0.37 68.21-17.662 60.35-7.717-51.25-5.259-70.9 0.635-36.68 4.501-79.23-0.399-92.68 10.951 20.71 0.304 141.65-13.405 71.29 6.416 7.84 2.79 16.15-0.39 24.08-0.34zm12.55-6.294c24.77-16.611 72.57-1.709 14.78-0.038l-8.04 0.697-6.74-0.659zm-1084.2-783.4c16.902-31.431-1.092-120.12-1.767-36.582 0.013 5.822-5.076 57.76 1.767 36.582z" fill-rule="nonzero"/>
            
        </g>
    </g>
</svg>

<?xml version="1.0" encoding="UTF-8" standalone="no"?>
<!DOCTYPE svg PUBLIC "-//W3C//DTD SVG 1.1//EN" "http://www.w3.org/Graphics/SVG/1.1/DTD/svg11.dtd">
<svg width="100%" height="100%" viewBox="0 0 28 28" version="1.1" xmlns="http://www.w3.org/2000/svg" xmlns:xlink="http://www.w3.org/1999/xlink" xml:space="preserve" xmlns:serif="http://www.serif.com/" style="fill-rule:evenodd;clip-rule:evenodd;stroke-linejoin:round;stroke-miterlimit:2;">
    <g id="Artboard1" transform="matrix(0.27717,0,0,0.27717,-4.87019e-06,0)">
        <rect x="0" y="0" width="100" height="100" style="fill:none;"/>
        <g transform="matrix(0.0705463,0,0,0.0705463,1.088,6.80307)">
            <g id="path71">
                <path id="path94" d="M351.238,1238.88C335.052,1237.58 310.122,1223.73 331.155,1214.69C307.203,1217.06 272.708,1210.09 283.763,1193.09C245.025,1213.84 325.624,1145.26 270.556,1170.42C225.377,1196.01 277.743,1101.45 224.204,1132.11C204.496,1119.63 189.983,1142.37 205.809,1119.72C170.726,1124.9 126.223,1129.6 90.209,1108.98C72.308,1097.58 113.579,1097.79 75.938,1083.64C82.431,1071.63 97.62,1076.67 86.872,1062.86C130.409,1048.48 46.083,1045.49 55.271,1037.15C92.331,1027.96 63.653,1027.46 63.052,1011.58C121.277,1014.49 27.703,979.235 79.812,975.837C73.579,953.696 31.472,965.105 41.159,929.829C1.671,923.637 27.652,895.256 14.558,898.992C-36.078,921.031 62.687,858.34 49.49,871.636C12.81,865.142 37.344,835.573 60.88,840.709C39.139,837.345 -9.862,826.566 37.673,812.834C67.419,803.121 45.59,778.407 38.28,800.195C11.276,762.585 83.334,795.151 65.212,743.367C57.174,594.575 44.216,445.99 38.008,297.158C40.587,229.658 29.213,160.635 39.069,94.169C55.031,56.333 58.643,93.522 79.482,64.805C80.584,90.7 94.764,67.746 101.133,89.683C123.615,72.908 107.641,21.396 130.899,67.596C149.944,24.603 147.405,120.034 165.434,55.906C187.069,57.183 185.945,87.939 196.604,54.969C208.433,47.218 208.707,30.678 234.769,34.384C238.996,-3.579 273.287,35.321 253.506,0C287.174,8.57 275.807,72.491 295.121,31.799C325.043,7.125 309.243,90.444 324.01,32.297C328.825,-18.108 366.805,81.302 364.508,42.091C350.158,38.058 395.5,17.122 382.239,54.569C382.009,89.99 375.773,173.339 385.492,180.969C399.134,131.576 422.618,99.634 457.297,97.458C453.767,122.054 473.863,74.155 460.376,120.443C465.964,141.358 480.651,73.311 486.373,118.696C487.305,154.955 517.865,76.286 508.498,131.804C518.298,88.366 533.778,123.962 523.193,118.801C530.39,138.545 565.939,53.197 569.708,95.995C553.58,135.488 557.362,131.074 576.561,105.597C595.456,129.101 555.299,151.527 576.414,160.094C596.998,117.731 577.026,212.707 593.405,156.467C604.457,129.474 614.007,217.362 601.048,240.182C596.16,272.351 563.061,367.829 601.751,298.373C620.324,266.673 647.287,210.654 656.604,263.636C662.632,283.218 677.313,294.779 689.955,270.938C700.399,243.014 688.924,300.777 706.294,262.943C701.316,274.679 702.507,313.159 718.662,285.751C706.635,321.468 671.798,393.218 724.654,332.146C826.03,237.194 927.279,139.774 1045.21,65.826C995.137,114.575 1178.31,-14.753 1121.47,23.525C1144.92,9.105 1151.19,3.212 1157.74,22.151C1194.42,-7.036 1173.08,46.689 1195.72,60.016C1214.5,96.271 1214.84,146.825 1248.9,170.709C1247.06,204.531 1281.05,210.614 1304.19,204.521C1344.88,149.031 1295.35,268.475 1349.28,221.902C1369.08,203.11 1318.7,277.841 1362.94,238.773C1340.12,258.895 1343.58,337.912 1386.96,298.847C1383.7,328.977 1342.82,383.196 1322.19,419.092C1297.35,453.722 1201.58,506.648 1212.84,526.606C1250.35,508.935 1263.53,544.491 1271.27,536.326C1316.65,542.661 1280.99,546.492 1290.56,551.272C1316.51,544.708 1236.94,578.6 1301.52,563.705C1304.46,573.552 1268.25,598.55 1314.91,594.446C1263.44,623.133 1361.69,575.898 1308.6,610.421C1310.97,623.882 1368.07,614.78 1365.08,632.427C1341.36,639.262 1304.15,654.248 1351.28,645.635C1364.4,669.178 1292.74,662.067 1312.32,678.474C1347.17,677.797 1267.97,708.199 1330.5,688.42C1346.03,686.164 1274.67,735.606 1335.48,717.965C1385.62,705.916 1391.4,725.101 1384.09,755.192C1376.83,784.403 1339.44,813.59 1365.22,848.932C1367.72,859.275 1341.7,880.326 1379.95,873.66C1433.85,876.453 1312.02,888.777 1368.03,910.855C1429.42,905.435 1322.84,946.575 1369.63,977.885C1455.3,988.417 1342.95,989.469 1328.29,1018.64C1260.94,1042.76 1192.15,1066.42 1119.2,1064.49C1082.22,1067.65 998.709,1065.57 990.303,1076.45C1031.7,1099.27 1139.82,1082.97 1108.48,1155.52C1093.14,1194.72 1097.97,1250.19 1037.17,1214.88C887.472,1181.58 739.559,1139.45 591.803,1099.61C528.153,1108.12 492.018,1180.33 432.856,1206.45C406.919,1216.06 377.72,1242.97 351.238,1238.88ZM200.189,1108.98C179.339,1094.81 120.271,1116.34 188.557,1112.53C192.346,1112.79 198.287,1113.55 200.189,1108.98ZM1116.05,1001.91C1148.34,1002.67 1222.01,1001.54 1184.26,984.248C1244.61,976.531 1133.01,978.989 1113.36,984.883C1076.68,989.384 1034.13,984.484 1020.68,995.834C1041.39,996.138 1162.33,982.429 1091.97,1002.25C1099.81,1005.04 1108.12,1001.86 1116.05,1001.91ZM1128.6,995.616C1153.37,979.005 1201.17,993.907 1143.38,995.578L1135.34,996.275L1128.6,995.616ZM44.357,212.218C61.259,180.787 43.265,92.101 42.59,175.636C42.603,181.458 37.514,233.396 44.357,212.218Z" style="fill-rule:nonzero;"/>
            </g>
        </g>
    </g>
</svg>
